X: 16099
T: Green Forest, The
R: jig
M: 6/8
K: Gmajor
e|dBG GAG|GBd efg|dBG GBd|ecA ABc|
dBG E2 G|DGB ABc|ded B2 A|BGF G2:|
|:d|ggg B2 d|ggg agf|g3 dBd|ecA A2 d|
gfe ddd|cBc ABc|ded B2 A|BGF G2:|

